X: 10424
M: C|
L: 1/8
K: D
|: eg |\
fdec dBAF | GBeg fdec | dfeg fagf | edcB A2eg |\
fdec dBAF | GBeg fdec | dfec dBAG | D2D2D2 :|


